X:543
T:Devil Take the Wars
M:C
L:1/8
B:O'Neill's 543
N:"Animated" "collected by F. O'Neill"
Z:Transcribed by Dave Wooldridge
N:line wrapping fixed [jc]
K:D
d2 (d>f) (fe)(dc) | (dA) (Bc/2d/2) (BA).G.F | FAAd d3 e | (fg/2a/2) gf (f2 e) z |
d2 (d>f) (fedc) | (dA B)(c/2d/2) (BAGF) | (FA)(Ad) (df)(a>g) | f2 Te2 d/4g/4e/4 d2 z ||
d | .f.d.f.a .f.d z d | .e.c.e.a ec z e | f2 fd e2 e>c | d>e (f/2e/2d/2c/) B3 c |
A>BAF A3 d | A>BAF A2 d>c | (Be)ef e3 f | (gf)(ed) (dc)(BA) | A>BAF A2 a>g | f2 Te2 d/4g/4e/4 d2 z ||


